!!!COM:	Bach, Johann Sebastian
!!!CDT:	1685/02/21/-1750/07/28/
!!!OTL@@DE:	Christus, der uns selig macht
!!!SCT:	BWV 283
!!!PC#:	198
!!!AGN:	chorale
!!!ONB: Same as No. 307
**kern	**kern	**kern	**kern
*ICvox	*ICvox	*ICvox	*ICvox
*Ibass	*Itenor	*Ialto	*Isoprn
*I"Bass	*I"Tenor	*I"Alto	*I"Soprano
*clefF4	*clefGv2	*clefG2	*clefG2
*k[]	*k[]	*k[]	*k[]
*a:	*a:	*a:	*a:
*M4/4	*M4/4	*M4/4	*M4/4
*met(c)	*met(c)	*met(c)	*met(c)
*MM100	*MM100	*MM100	*MM100
=1-	=1-	=1-	=1-
8EL	4B	8g#L	4ee
8F#J	.	8aJ	.
8G#L	8eL	8bL	4ee
8EJ	8dJ	8g#J	.
8AL	8cL	4a	4ee
8BJ	8dJ	.	.
8cL	8eL	4a	4ee
8AJ	[8cJ	.	.
=2	=2	=2	=2
8F#L	8c]	8aL	4dd
8G#J	4B	8eJ	.
8AL	.	4e	4cc
8AAJ	8A	.	.
2E;	4A	2e;	2b;
.	4G#;	.	.
=3	=3	=3	=3
4F	4A	8cL	4a
.	.	8dJ	.
8EL	4B	[4e	4g#
8DJ	.	.	.
4C	4c	8e]	4a
.	.	8f#	.
8BBL	8dL	8g#L	8bL
[8AAJ	8eJ	8aJ	8ccJ
=4	=4	=4	=4
8AAL]	8fL	4.b	4dd
8GG#J	8eJ	.	.
8AAL	4e	.	4cc
8CJ	.	8a	.
2E;	2e;	4a	2b;
.	.	4g#;	.
=5	=5	=5	=5
8FL	4c	8aL	4a
8EJ	.	8gnXJ	.
4D	4d	4f	4b
4E	4.c	4.g	8ccL
.	.	.	8bJ
4F	.	.	4a
.	8d	8f	.
=6	=6	=6	=6
4C#	4A	4.e	8aL
.	.	.	8gJ
4D	4A	.	4f
.	.	8d	.
2AA;	2A;	2c#;	2e;
=7	=7	=7	=7
4BB-	8FL	8dL	4d
.	8DJ	8GJ	.
8AAL	4E	4A	4c#
8GGJ	.	.	.
4FF	4F	8AL	4d
.	.	8BnXJ	.
8EEL	8GL	8c#XL	8eL
[8DDJ	8AJ	8dJ	8fJ
=8	=8	=8	=8
8DDL]	8B-L	4.e	4g
8CC#J	8AJ	.	.
8DDL	4A	.	4f
8FFJ	.	8d	.
2AA;	2A;	2c#;	2e;
=9	=9	=9	=9
8FFL	8AL	4cnX	4a
8GGJ	8B-J	.	.
8AAL	4c	[4f	4a
8BB-XJ	.	.	.
4.C	4.c	8fL]	4a
.	.	16eL	.
.	.	16dJJ	.
.	.	[4e	4g
8C#	8B-	.	.
=10	=10	=10	=10
4D	4.A	8e]	4f
.	.	4d	.
4AA	.	.	4e
.	16ALL	8c#	.
.	16GJJ	.	.
2DD;	2F;	2d;	2d;
=11	=11	=11	=11
4E	8G	8B	4g
.	4c	4e	.
4F#	.	.	4a
.	16dLL	8d	.
.	16cJJ	.	.
8GL	8BL	4d	4b
8FJ	8dJ	.	.
4E	8GL	4e	4cc
.	[8cJ	.	.
=12	=12	=12	=12
8DL	8cL]	8f	4dd
8GJ	8BJ	4g	.
[4C	8cL	.	4ee
.	8eJ	4a	.
8CL]	4.f	.	4dd
8BBJ	.	8g	.
8CL	.	4g	4cc
8EJ	8e	.	.
=13	=13	=13	=13
2G;	2d;	2g;	2b;
4A	4c	8eL	4a
.	.	8f#J	.
8GL	4d	4g	4b
8FnXJ	.	.	.
=14	=14	=14	=14
4E	4.c	4g	8ccL
.	.	.	8bJ
8FL	.	8aL	4a
8EJ	8c#	8gJ	.
8DL	4d	8fL	8aL
8E	.	8eJ	8gJ
8F	4A	4d	4f
8GJ	.	.	.
=15	=15	=15	=15
2A;	2A;	4d	2e;
.	.	4c#;	.
4F	4A	8dL	4d
.	.	8AJ	.
4E	8GL	8B-L	4c
.	8EJ	8GJ	.
=16	=16	=16	=16
4D	4F	8AL	4d
.	.	8BJ	.
[4C	4G	8cL	8eL
.	.	8dJ	8fJ
8CL]	4c	4e	4g
8BB-J	.	.	.
8AAL	[4c	[4f	4a
8FFJ	.	.	.
=17	=17	=17	=17
4C	8.cL]	8f]	4g
.	.	4e	.
.	16B-Jk	.	.
4D	8AL	.	4f
.	16BL	16dLL	.
.	16AJJ	16cJJ	.
2E;	2G#;	2B;	2e;
==	==	==	==
*-	*-	*-	*-
!!!hum2abc: -Q ''
!!!title: @{PC#}. @{OTL@@DE}
!!!YOR1: 371 vierstimmige Choralges&auml;nge von Johann Sebastian Bach, 
!!!YOR2: 4th ed. by Alfred D&ouml;rffel (Leipzig: Breitkopf und H&auml;rtel, 
!!!YOR2: c.1875). 178 pp. Plate "V.A.10".  reprint: J.S. Bach, 371 Four-Part 
!!!YOR4: Chorales (New York: Associated Music Publishers, Inc., c.1940).
!!!SMS: B&H, 4th ed, Alfred D&ouml;rffel, c.1875, plate V.A.10
!!!EED:  Craig Stuart Sapp
!!!EEV:  2009/05/22
